X: 281
T: The Highlandman's Umbrella   (D)
C: Beryl S Johnston
B: Glasgow Diamond Jubilee #4
R: Reel
Z: Bruce Shawyer (chords by John Chambers)
M: 4/4
L: 1/8
K: D
AG |\
"D"F2 FE D2 DB, | "A7"A,B, DE "D"F2 AA | "G"B2 dd F2 D2 | "E7"F2 E2 "A7"E2 AG |\
"D"F2 FE D2 EF | "G"GA Bc d2 B2 | "D"A3d f2 d2 | "A7"[e4A4] "D"[d2F2] :|
|: fg |\
"D"a2 aa f2 d2  | "G"b2 bb "A7"g2 e2 | "D"a2 aa "Bm"d2 f2 | "E7"f2 e2 "A7"e2 aa |\
"G"ba gf "Em"gf ed | "A7"ed cB A2 Bc | "D"de fg a2 f2 | "A7"[e4A4] "D"[d2F2] :|

%%sep 1 1 500

